X: 4129
T: Blue Bell, The
R: three-two
M: 3/2
K: Gmajor
|:G4 BcdF G4|edcB ABcB F2 A2|dcBA GAGF E2 A2|cBAG DGFA G4:|
|:g3 b[dad']bg egec|A4 abag fefg|F2 G2 e3 d cBAG|cBAG DGFA G4:|
|:GABc d2 G2 F2 G2|ABc^d e2 A2 ^G2 A2|b3 a gfed cBAG|cBAG DGF[DAc] G4:|

